X: 1
T: Untitled
L: 1/8
R: 2/4
K: G
|:GD G>A|Be e g/e/|d B/d/  c/b/a/g/|BA A B/A/|GD G>A|Be e g/e/|d B/d/ c/B/A/B/|1 G2 G B/A/:|2 G2 G B/d/|
|:Ge e/d/e/f/|gB B g/e/|d B/d/ c/B/A/G/|BA A B/d/|ge e/d/e/f/|gB B g/e/|d B/d/ c/B/A/B/|1 G2 G B/d/:|2 G2 G2|
